48x48/apps/appimagekit-enve.svg

<svg width="48" height="48" version="1.1" xmlns="http://www.w3.org/2000/svg">
 <g transform="matrix(2,0,0,2,2,2)">
  <path d="m6 14.5s2 3 5 3c4 0 6-2 7-2 2 0 3 1 3 2 0 2-6 4-10 4-5 0-10-4-10-8 0-3 1.5169491-12 13-12 5 0 7 2 7 5s-2 5-7 7c-2.936101 1.17444-8 1-8 1z" style="opacity:.2"/>
  <path d="m6 14s2 3 5 3c4 0 6-2 7-2 2 0 3 1 3 2 0 2-6 4-10 4-5 0-10-4-10-8 0-3 1.5169491-12 13-12 5 0 7 2 7 5s-2 5-7 7c-2.936101 1.17444-8 1-8 1z" style="fill:#00d792"/>
  <circle cx="11" cy="7.5" r="4" style="opacity:.2"/>
  <circle cx="11" cy="7" r="4" style="fill:#f4f4f7"/>
  <path d="M 14,1 C 2.5169491,1 1,10 1,13 1,13.07618 1.013986,13.152363 1.017578,13.228516 1.0955172,10.022871 2.7999699,1.5 14,1.5 c 4.858177,0 6.879212,1.8909956 6.990234,4.75 C 20.993475,6.1664925 21,6.0850938 21,6 21,3 19,1 14,1 Z M 6,14.5 c 0,0 2,3 5,3 4,0 6,-2 7,-2 1.801063,0 2.783742,0.811503 2.962891,1.703125 C 20.976335,17.135489 21,17.067713 21,17 21,16 20,15 18,15 17,15 15,17 11,17 8.7773096,17 7.1087602,15.35728 6.390625,14.503906 6.2644403,14.501579 6,14.5 6,14.5 Z" style="fill:#f4f4f7;opacity:.2"/>
 </g>
</svg>

<svg width="48" height="48" xmlns="http://www.w3.org/2000/svg"><g transform="matrix(2 0 0 2 2 2)"><path d="M6 14.5s2 3 5 3c4 0 6-2 7-2 2 0 3 1 3 2 0 2-6 4-10 4-5 0-10-4-10-8 0-3 1.517-12 13-12 5 0 7 2 7 5s-2 5-7 7c-2.936 1.174-8 1-8 1z" style="opacity:.2"/><path d="M6 14s2 3 5 3c4 0 6-2 7-2 2 0 3 1 3 2 0 2-6 4-10 4-5 0-10-4-10-8C1 10 2.517 1 14 1c5 0 7 2 7 5s-2 5-7 7c-2.936 1.174-8 1-8 1z" style="fill:#00d792"/><circle cx="11" cy="7.5" r="4" style="opacity:.2"/><circle cx="11" cy="7" r="4" style="fill:#f4f4f7"/><path d="M14 1C2.517 1 1 10 1 13c0 .076.014.152.018.229C1.096 10.023 2.8 1.5 14 1.5c4.858 0 6.88 1.891 6.99 4.75.003-.084.01-.165.01-.25 0-3-2-5-7-5zM6 14.5s2 3 5 3c4 0 6-2 7-2 1.801 0 2.784.812 2.963 1.703.013-.068.037-.135.037-.203 0-1-1-2-3-2-1 0-3 2-7 2-2.223 0-3.891-1.643-4.61-2.496L6 14.5z" style="fill:#f4f4f7;opacity:.2"/></g></svg>
